packages/ffe-icons/icons/open/300/sm/sound_detection_dog_barking.svg

<svg xmlns="http://www.w3.org/2000/svg" height="20" viewBox="0 -960 960 960" width="20"><path d="M212.001-116.001v-371.923H264V-168h298.001v-194.769l75.923-71.307q34.154-31.154 52.23-73.77 18.077-42.615 18.077-89.154 0-44.923-15.692-86.846-15.692-41.924-48.231-74.078L624-777.232 505.769-658.001H371.77L310.769-597l-39.768-33.768 79.231-79.231h133.999L624-849.768l53.076 51.692q40.462 39.461 61.616 90.922Q759.845-655.692 760.23-599q-.385 57.692-22.038 110.654-21.654 52.961-64.116 92.422l-60.077 55.693v224.23H212.001Zm193.615-174.615L208.924-487.924q-6.846-9.846-10.384-19.922-3.539-10.077-3.539-21.154 0-12.077 3.539-23.654 3.538-11.576 13.384-19.422l79.077-78.692 117.076 102.692q27.846 27.846 40.192 62.922 12.346 35.077 12.346 74.154 0 34.384-15.307 65.538-15.308 31.153-39.692 54.846Z"/></svg>

<svg xmlns="http://www.w3.org/2000/svg" height="20" viewBox="0 -960 960 960" width="20"><path d="M212-116v-371.92h52V-168h298v-194.77l75.92-71.31q34.16-31.15 52.23-73.77 18.08-42.61 18.08-89.15 0-44.92-15.69-86.85-15.69-41.92-48.23-74.07L624-777.23 505.77-658h-134l-61 61L271-630.77 350.23-710h134L624-849.77l53.08 51.69q40.46 39.47 61.61 90.93 21.16 51.46 21.54 108.15-.38 57.69-22.04 110.65-21.65 52.96-64.11 92.43L614-340.23V-116H212Zm193.62-174.62-196.7-197.3q-6.84-9.85-10.38-19.93Q195-517.92 195-529q0-12.08 3.54-23.65 3.54-11.58 13.38-19.43L291-650.77l117.08 102.69q27.84 27.85 40.19 62.93 12.35 35.07 12.35 74.15 0 34.38-15.31 65.54-15.31 31.15-39.69 54.84Z"/></svg>
